X:1
T:Hayward, 87.87 D
T:Hayward, 87.87 D
T:Peter Philip Bilhorn, 1896
T:Public Domain Courtesy of the Cyber Hymnal™
C:Peter Philip Bilhorn, 1896
Z:Public Domain
Z:Courtesy of the Cyber Hymnal™
%%score ( 1 2 ) ( 3 4 )
L:1/8
Q:1/4=90
M:3/4
K:Eb
V:1 treble 
V:2 treble 
V:3 bass 
V:4 bass 
V:1
 [EB]>[EB] | [EB]3 [EG] [B,E]>[B,F] | [B,E]2 [B,D]2 [DA]>[DA] | [DA]3 [B,D] [B,E]>[DF] | %4
 [EG]4 [GB]>[GB] | [Ge]3 [GB] [EG]>E | [EA]2 !fermata![Ec]2 [EB]>[Ec] | [EB]3 [FA] [EG]>[DF] | %8
 E4 B>B | [AB]3 [AB] [Ac]>[Ad] | [Ge]2 [GB]2 [GB]>[GB] | [AB]3 [AB] [Ad]>[Ac] | [GB]4 [GB]>[GB] | %13
 [Ge]3 [GB] [EG]>E | [EA]2 !fermata![Ec]2 [EB]>[Ec] | [EB]3 [FA] [EG]>[DF] | E4 |] %17
V:2
 x2 | x6 | x6 | x6 | x6 | x11/2 E/ | x6 | x6 | E4 B>B | x6 | x6 | x6 | x6 | x11/2 E/ | x6 | x6 | %16
 E4 |] %17
V:3
 [E,G,]>[E,G,] | [E,G,]3 [E,B,] [E,G,]>[E,A,] | [B,,G,]2 [B,,A,]2 [B,,F,]>[B,,F,] | %3
 [B,,F,]3 [B,,A,] [B,,G,]>[B,,B,] | [E,B,]4 [E,B,]>[E,B,] | [E,B,]3 [E,E] [E,B,]>[_D,B,] | %6
 [C,A,]2 !fermata![A,,A,]2 [B,,G,]>[B,,^F,] | [B,,G,]3 [B,,B,] [B,,B,]>[B,,A,] | [E,G,]4 B,>B, | %9
 [B,,D]3 [B,,D] [B,,D]>[B,,B,] | [E,B,]2 [E,E]2 [E,E]>[E,E] | [F,D]3 [F,D] [B,,F]>[B,,D] | %12
 [E,E]4 [E,E]>[E,E] | [E,B,]3 [E,E] [E,B,]>[_D,B,] | [C,A,]2 !fermata![A,,A,]2 [B,,G,]>[B,,^F,] | %15
 [B,,G,]3 [B,,B,] [B,,B,]>[B,,A,] | [E,G,]4 |] %17
V:4
 x2 | x6 | x6 | x6 | x6 | x6 | x6 | x6 | x4 B,>B, | x6 | x6 | x6 | x6 | x6 | x6 | x6 | x4 |] %17

